icons/key-24.svg

<svg width="24" height="24" viewBox="0 0 24 24" fill="none" xmlns="http://www.w3.org/2000/svg">
<path d="M16.7499 8.49996C17.4403 8.49996 17.9999 7.94032 17.9999 7.24996C17.9999 6.55961 17.4403 5.99997 16.7499 5.99997C16.0596 5.99997 15.4999 6.55961 15.4999 7.24996C15.4999 7.94032 16.0596 8.49996 16.7499 8.49996Z" fill="#24292E"/>
<path fill-rule="evenodd" clip-rule="evenodd" d="M15.7499 0C11.1936 0 7.49996 3.69363 7.49996 8.24996C7.49996 9.13542 7.63972 9.98949 7.89878 10.7906L0.51256 18.1768C0.184373 18.505 0 18.9501 0 19.4142V22.25C0 23.2165 0.783498 24 1.74999 24H3.24998C4.21648 24 4.99997 23.2165 4.99997 22.25V21.2498C4.99997 21.1117 5.1119 20.9998 5.24997 20.9998H7.98524C8.18552 21.0037 8.38339 20.9272 8.53041 20.7802L8.74367 20.5669C8.90777 20.4029 8.99995 20.1803 8.99995 19.9482V18.4998C8.99995 18.3617 9.11188 18.2498 9.24995 18.2498H10.336C10.8001 18.2498 11.2452 18.0654 11.5734 17.7372L13.2095 16.1012C14.0105 16.3602 14.8645 16.4999 15.7499 16.4999C20.3062 16.4999 23.9999 12.8063 23.9999 8.24996C23.9999 3.69363 20.3062 0 15.7499 0ZM8.99995 8.24996C8.99995 4.52206 12.022 1.49999 15.7499 1.49999C19.4778 1.49999 22.4999 4.52206 22.4999 8.24996C22.4999 11.9779 19.4778 14.9999 15.7499 14.9999C14.8798 14.9999 14.0499 14.8357 13.2882 14.5372C13.0106 14.4284 12.695 14.4943 12.4842 14.7051L10.5128 16.6766C10.4659 16.7234 10.4023 16.7498 10.336 16.7498H9.24995C8.28346 16.7498 7.49996 17.5333 7.49996 18.4998V19.4998H5.24997C4.28348 19.4998 3.49998 20.2833 3.49998 21.2498V22.25C3.49998 22.3881 3.38805 22.5 3.24998 22.5H1.74999C1.61192 22.5 1.49999 22.3881 1.49999 22.25V19.4142C1.49999 19.3479 1.52633 19.2843 1.57322 19.2374L9.29481 11.5158C9.50561 11.305 9.57155 10.9894 9.46277 10.7119C9.16423 9.95009 8.99995 9.12011 8.99995 8.24996Z" fill="#24292E"/>
</svg>

<svg xmlns="http://www.w3.org/2000/svg" width="24" height="24" viewBox="0 0 24 24"><path d="M16.75 8.5a1.25 1.25 0 100-2.5 1.25 1.25 0 000 2.5z"/><path fill-rule="evenodd" d="M15.75 0a8.25 8.25 0 00-7.851 10.79L.513 18.178A1.75 1.75 0 000 19.414v2.836C0 23.217.784 24 1.75 24h1.5A1.75 1.75 0 005 22.25v-1a.25.25 0 01.25-.25h2.735a.75.75 0 00.545-.22l.214-.213A.875.875 0 009 19.948V18.5a.25.25 0 01.25-.25h1.086c.464 0 .91-.184 1.237-.513l1.636-1.636A8.25 8.25 0 1015.75 0zM9 8.25a6.75 6.75 0 114.288 6.287.75.75 0 00-.804.168l-1.971 1.972a.25.25 0 01-.177.073H9.25A1.75 1.75 0 007.5 18.5v1H5.25a1.75 1.75 0 00-1.75 1.75v1a.25.25 0 01-.25.25h-1.5a.25.25 0 01-.25-.25v-2.836a.25.25 0 01.073-.177l7.722-7.721a.75.75 0 00.168-.804A6.73 6.73 0 019 8.25z"/></svg>
